public/assets/footer/x-dark.svg

<svg fill="none" height="36" viewBox="0 0 37 36" width="37" xmlns="http://www.w3.org/2000/svg" xmlns:xlink="http://www.w3.org/1999/xlink"><clipPath id="a"><path d="m8.21436 7.75232h20.571v20.571h-20.571z"/></clipPath><g clip-path="url(#a)"><path d="m20.4152 16.463 7.4934-8.71068h-1.7759l-6.5063 7.56318-5.1969-7.56318h-5.99395l7.85855 11.43708-7.85855 9.1344h1.77585l6.8712-7.9871 5.4881 7.9871h5.994l-8.15-11.8608zm-2.4323 2.827-.7963-1.1388-6.3354-9.06206h2.7277l5.1125 7.31346.7961 1.1388 6.6461 9.5063h-2.7274l-5.4233-7.7572z" fill="#fff"/></g></svg>

<svg xmlns="http://www.w3.org/2000/svg" width="37" height="36" fill="none" viewBox="0 0 37 36"><g clip-path="url(#clip0_1141_18546)"><path fill="#fff" d="M20.4152 16.463L27.9086 7.75232H26.1327L19.6264 15.3155L14.4295 7.75232H8.43555L16.2941 19.1894L8.43555 28.3238H10.2114L17.0826 20.3367L22.5707 28.3238H28.5647L20.4147 16.463H20.4152ZM17.9829 19.29L17.1866 18.1512L10.8512 9.08914H13.5789L18.6914 16.4026L19.4875 17.5414L26.1336 27.0477H23.4062L17.9829 19.2905V19.29Z"/></g><defs><clipPath id="clip0_1141_18546"><rect width="20.571" height="20.571" fill="#fff" transform="translate(8.21436 7.75232)"/></clipPath></defs></svg>
